src/pos-icons/mailbox-open.svg

<svg height="24" viewBox="0 0 24 24" width="24" xmlns="http://www.w3.org/2000/svg"><path d="m8 4a5 5 0 0 0 -5 5v9h-2v2h20a2 2 0 0 0 2-2v-9a5 5 0 0 0 -5-5zm0 2a3 3 0 0 1 3 3v9h-6v-9a3 3 0 0 1 3-3m6 5h6v4h-2v-2h-4z"/></svg>

<?xml version="1.0" encoding="UTF-8"?><!DOCTYPE svg PUBLIC "-//W3C//DTD SVG 1.1//EN" "http://www.w3.org/Graphics/SVG/1.1/DTD/svg11.dtd"><svg xmlns="http://www.w3.org/2000/svg" xmlns:xlink="http://www.w3.org/1999/xlink" version="1.1" id="mdi-mailbox-open" width="24" height="24" viewBox="0 0 24 24"><path d="M8,4A5,5 0 0,0 3,9V18H1V20H21A2,2 0 0,0 23,18V9A5,5 0 0,0 18,4H8M8,6A3,3 0 0,1 11,9V18H5V9A3,3 0 0,1 8,6M14,11H20V15H18V13H14V11Z" /></svg>
